packages/ui-kit/src/icons/svg/ribbon.svg

<?xml version="1.0" encoding="UTF-8"?>
<svg width="16px" height="16px" viewBox="0 0 16 16" version="1.1" xmlns="http://www.w3.org/2000/svg" xmlns:xlink="http://www.w3.org/1999/xlink">
    <!-- Generator: Sketch 59.1 (86144) - https://sketch.com -->
    <title>clock</title>
    <desc>Created with Sketch.</desc>
    <g id="App-KIT-FInal" stroke="none" stroke-width="1" fill="none" fill-rule="evenodd">
        <g id="App-kit-/-3Colum-/--Component" transform="translate(-395.000000, -640.000000)" fill="#E6E6E6">
            <g id="Component-/-icon-/-16px-/-bookmark" transform="translate(395.000000, 640.000000)">
                <path d="M12.3218456,2 L3.69153157,2 C3.30427389,2 3,2.2778728 3,2.63152909 L3,13.3675236 C3,13.5948741 3.13830631,13.809594 3.35959642,13.9232692 C3.58088652,14.0369445 3.85749915,14.0243139 4.06495862,13.8853775 L8.00668859,11.4855669 L11.9345879,13.8980081 C12.045233,13.9737915 12.1835393,13.9990527 12.3218456,13.9990527 C12.4324907,13.9990527 12.5431357,13.9737915 12.6399501,13.9232692 C12.8612402,13.809594 12.9995466,13.5948741 12.9995466,13.3675236 L12.9995466,2.63152909 C13.0133772,2.2778728 12.7091033,2 12.3218456,2 Z" id="Path"></path>
            </g>
        </g>
    </g>
</svg>

<svg viewBox="0 0 16 16" width="16px" height="16px" xmlns="http://www.w3.org/2000/svg">
  <path d="M12.322 2h-8.63C3.304 2 3 2.278 3 2.632v10.736c0 .227.138.442.36.555a.705.705 0 00.705-.038l3.942-2.4 3.928 2.413a.68.68 0 00.387.101.69.69 0 00.318-.076.636.636 0 00.36-.555V2.632c.013-.354-.29-.632-.678-.632z" fill="#E6E6E6" fill-rule="evenodd"/>
</svg>
